actions/22x22-dark/view-task-child-add.svg

<svg viewBox="0 0 22 22" xmlns="http://www.w3.org/2000/svg"><path d="m4 3c-.5540164 0-1 .4459836-1 1v14c0 .554016.4459836 1 1 1h14c .554016 0 1-.445984 1-1v-14c0-.5540164-.445984-1-1-1zm6.300781 4.5h1.398438v2.800781h2.800781v1.398438h-2.800781v2.800781h-1.398438v-2.800781h-2.800781v-1.398438h2.800781z" fill="#f2f2f2"/></svg>

<svg xmlns="http://www.w3.org/2000/svg" viewBox="0 0 22 22">
  <defs id="defs3051">
    <style type="text/css" id="current-color-scheme">
      .ColorScheme-Text {
        color:#f2f2f2
      }
      </style>
  </defs>
 <path 
     style="fill:currentColor;fill-opacity:1;stroke:none"      
	 class="ColorScheme-Text"
        d="M 4 3 C 3.4459836 3 3 3.4459836 3 4 L 3 18 C 3 18.554016 3.4459836 19 4 19 L 18 19 C 18.554016 19 19 18.554016 19 18 L 19 4 C 19 3.4459836 18.554016 3 18 3 L 4 3 z M 10.300781 7.5 L 11.699219 7.5 L 11.699219 10.300781 L 14.5 10.300781 L 14.5 11.699219 L 11.699219 11.699219 L 11.699219 14.5 L 10.300781 14.5 L 10.300781 11.699219 L 7.5 11.699219 L 7.5 10.300781 L 10.300781 10.300781 L 10.300781 7.5 z "
     />
</svg>
